X: 102
M: C|
L: 1/8
K: Ador
dBgB AGEG | D/D/D EG A2A :|
|: B |\
cABG AGEG | cBcd efge |\
dBgB AGEG | D/D/D EG A3 :|

